X:1
T:Title
%%score ( 1 2 3 ) { 4 | ( 5 6 ) }
L:1/8
Q:1/4=108
M:4/4
K:Bb
V:1 treble nm="Grand Piano, Staff 1"
V:2 treble 
V:3 treble 
V:4 bass nm="Choir Pad, Cannons, LM"
V:5 bass 
V:6 bass 
V:1
 [DG]2 D2- D/ z/ [C^F] [DG]2 | z2 .B4 z2 | [DB]2 F2- F/ z/ [EA] [FB]2 | z2 .d4 z2 | %4
w: By~George~Frederick~Handel~(1685\-1759) * * * *||||
 [Fd]2 [Be]2- [Be][Ad] [Gc]2 | [FB]2 [EA]2 [CG]2 [D^F]2 | z4 z2 .c2 | [GB]2 [GA]2 [^FA]2 G2- | %8
w: ||||
 G8 |] %9
w: |
V:2
 x8 | [DA]2 D2 z c [DA]2 | x8 | [Fc]2 F2 z e [Fc]2 | x8 | x8 | [^FA]2 [Gd]2 G2 F-[Fd] | x8 | x8 |] %9
V:3
 x8 | z4 E2 z2 | x8 | z4 G2 z2 | x8 | x8 | x8 | x8 | x8 |] %9
V:4
 B,2 G,2- G,A, B,2 | ^F,2 G,2 G,2 F,2 | F,2 B,2- B,C D2 | A,2 B,2 B,2 A,2 | %4
 B,2 B,2- B,[K:treble]D E2 | B,2 C2 G,2 A,2 | D2 D2 E2 C2 | D2 .D4 B,2- | B,8 |] %9
V:5
 G,,2 B,,2- B,,A,, G,,2 | D,2 z2 C,2 D,2 | B,,2 D,2- D,C, B,,2 | F,2 z2 E,2 F,2 | %4
 z2 G,2- G,F, E,2 | D,2 C,2 E,2 D,2 | D,2 B,,2 C,2 A,,2 | z4 D,2 z2 | z8 |] %9
V:6
 x8 | x8 | x8 | x8 | x8 | x8 | x8 | G,,2 D,2 z C G,,2- | G,,8 |] %9

